!!!OTL: Das Grab.
!!!OTL-incipit: ICH WEISS EIN RUHEBETTE
!!!ARE: Europa, Mitteleuropa, Deutschland
!!!SCT: F1071
!!!TXL: @@DE
!!!YEM: Copyright 1995, estate of Helmut Schaffrath.
**kern	**text
*ICvox	*
*clefG2	*
*M4/4	*
*met(c)	*
*k[f#]	*
*G:	*
!LO:TX:a:t=In langſamer, anhaltender Bewegung.	!
{4b	1._Jch
=1	=1
4b	weiß
4g	ein
8ddqq	.
4cc	Ru-
4b	-he-
=2	=2
4bqq	.
2a	-bet-
4g	-te,
8r}	.
{8g	wo
=3	=3
4g	nichts
4g	den
(>4gSS	Mü-
8a)	.
8e	-den
=4	=4
4gqq	.
2f#	weckt,
4r}	.
{8f#L	es
8gJ	.
=5	=5
4a	iſt
4a	die
4a	Ru-
4b/	-he-
=6	=6
(>4bSs	-ſtät-
8ddL)	.
8ccJ	.
4cc;	-te
8r}	.
{8cc	mit
=7	=7
4f#	Moos
8gL	und
8aJ	.
4d	Kreuʒ
4f#	be-
=8	=8
!LO:N:vis=2	!
2.g}	-deckt.
==	==
!!!AGN: Trauer -, Bregraebnis -, Trost - Lied
!!!ONB: ESAC (Essen Associative Code) Database: FINK
!!!AMT: simple quadruple
!!!AIN: vox
!!!EED: Helmut Schaffrath
!!!EEV: 1.0
!!Nach Fr. Methessel
!!!RDF**kern: > = above
!!!GTL: Trauer- Begraebniss- und Trostlieder
!!!URL-scan: https://www.digitale-sammlungen.de/en/view/bsb11144622?page=678
!!!ENC: Anna Maria Matuszewska
!!!EEV: 2024/08/098
*-	*-
